!!!!SEGMENT: pl-wumfc--n53446--001-029_moniuszko-stanislaw--hrabina-no-24-zakonczenie.krn
!!!cenid: 18xx:4116
!!!COM: Moniuszko, Stanisław
!!!COM-rismID: pe30008351
!!!CDT: 1819/05/05-1872/06/04
!!!CNT: Polish
!!!OPR: Hrabina
!!!OTL: No. 24. Zakończenie
!!!OMV: 029
!!!PDT:
!!!AGN: Secular; Opera
!!!YEC: Copyright 2022 Narodowy Instytut Fryderyka Chopina (https://polishscores.org)
!!!YEM: License CC-BY-4.0 (https://creativecommons.org/licenses/by/4.0)
!!!SMS-siglum: PL-Wumfc
!!!SMS-shelfmark: N53446
!!!SMS-shelfwork: 001-029 M
!!!SMS-variant:
!!!SMS-altvar:
!!!NIFC-rismSourceID: 1001165649
!!!NIFC-rismChildID: 1001165649
!!!NIFC-islandoraID: pl-wumfc:6884
!!!URL-pdf-islandora: https://repozytorium.nifc.pl/islandora/object/pl-wumfc%3A6884/datastream/PDF/view
!!!URL-scan: https://polish.musicsources.pl/pl/lokalizacje/galeria/druki-muzyczne/12579 @EN{Scan on Polish Music Sources Website} @PL{Skany w portalu Dziedzictwo Muzyki Polskiej w otwartym dostępie}
!!!IIIF:
!!!ONB-nifc:
!!!AIN: 1 piano
!!!key: G
**kern	**kern	**text	**dynam
*part1	*part1	*	*
*staff2	*staff1	*	*
*I"[Piano.]	*I"[Piano.]	*	*
*Ipiano	*Ipiano	*	*
*ICklav	*ICklav	*	*
*clefF4	*clefG2	*	*
*k[f#]	*k[f#]	*	*
*G:	*G:	*	*
*M3/4	*M3/4	*	*
!!LO:TX:B:a:t=Allegro moderato.
!	!LO:TX:t=P:problem:cały tekst zapisany ponad pięciolinią	!	!
8.r	8.r	.	.
16G 16D 16BB 16GG/	16gg 16dd 16b 16g\	.	ff
=1	=1	=1	=1
2G 2D 2BB 2GG;</	2gg 2dd 2b 2g;\	.	.
4r	4r	.	.
=2	=2	=2	=2
4G 4GG/	8.dL 8.B/	A	.
.	16dJk 16B/	kie-	.
4D 4DD/	4g 4d 4B/	-dy	.
4BB 4BBB/	4b 4g 4d/	się	.
=3	=3	=3	=3
8.GGL 8.GGG/	8.ddL 8.b 8.d/	po-	.
16GJk 16GG/	16ddJk 16b 16d/	-ra	.
4G 4GG/	4b 4g 4d/	zda-	.
4G 4GG/	4g 4d 4B/	-rza	.
=4	=4	=4	=4
8.GGL 8.GGG/	8.ddL 8.b 8.d/	po-	.
16GJk 16GG/	16ddJk 16b 16d/	-ra	.
4G 4GG/	4b 4g 4d/	zda-	.
4G 4GG/	4g 4d 4B/	-rza	.
!!LO:LB:g=original
=5	=5	=5	=5
8.EL 8.EE/	8.ccL 8.g 8.c/	i	.
16EJk 16EE/	16ccJk 16g 16c/	ta-	.
4C 4CC/	4ee 4cc 4g 4e/	-ka	.
4E 4EE/	4ee 4cc 4g 4e/	do-	.
=6	=6	=6	=6
2G 2GG;</	2dd 2b 2g 2d;/	-ba	.
4r	4r	.	.
=7	=7	=7	=7
8.CL 8.CC/	8.ccL 8.a 8.e/	pij-	.
16CJk 16CC/	16ccJk 16a 16e/	-my	.
4.C 4.CC/	4.ee 4.cc 4.a 4.e/	zdro-	.
8C 8CC/	8cc 8a 8e/	-wie	.
=8	=8	=8	=8
8.DL 8.DD/	8.bL 8.g 8.d/	gos-	.
16D/Jk	16bJk 16g 16d/	-po-	.
4B 4BB\	4.dd 4.b 4.g 4.d/	-da-	.
4G 4GG/	.	.	.
.	8b 8g 8d/	-rza	.
=9	=9	=9	=9
8DL 8DD/	8aL 8f# 8d/	jak	.
8DJ 8DD/	8ddJ 8a 8f# 8d/	się	.
4D 4DD/	4a 4f# 4d/	po-	.
4D 4DD/	4a 4f# 4d/	-do-	.
=10	=10	=10	=10
8.GL 8.GG^/	2b 2g 2d/	-ba.	.
16F#Jk 16FF#/	.	.	.
8EL 8EE^/	.	.	.
8D 8DD^/	.	.	.
8C 8CC^/	4r	.	.
8BBJ 8BBB^/	.	.	.
!!LO:LB:g=original
=11	=11	=11	=11
8.CL 8.CC/	8.ccL 8.a 8.e/	.	.
16CJk 16CC/	16ccJk 16a 16e/	.	.
4.c 4.C\	4.ee 4.cc 4.a 4.e^>/	.	.
8C 8CC/	8cc 8a 8e/	.	.
=12	=12	=12	=12
8.DL 8.DD\	8.bL 8.g 8.d/	.	.
16dJk 16D\	16ddJk 16b 16g/	.	.
4B 4BB\	4.gg 4.dd 4.b 4.g^\	.	.
4G 4GG/	.	.	.
.	8b 8g 8d/	.	.
=13	=13	=13	=13
*	*^	*	*
8DL 8DD/	8aL 8f# 8d/	2ryy	.	.
8DJ 8DD/	8ddJ 8f# 8d/	.	.	.
4D 4DD/	4a 4f# 4d/	.	.	.
4D 4DD/	8a/L	4f# 4c\	.	.
.	8b/J	.	.	.
*	*v	*v	*	*
=14	=14	=14	=14
8G 8GG/	2g 2B/	.	.
8E'/L	.	.	p
8D'/	.	.	.
8C'/	.	.	.
8BB'/	4r	.	.
8AA'/J	.	.	.
=15	=15	=15	=15
8GG\L	8dL 8B/	Podcz: Przysz-	.
8BB\	8dJ 8B/	-łych	.
8B\	4g 4d/	pań-	.
8F#\	.	.	.
8G\	4b 4g/	-stwa	.
8E\J	.	.	.
!!LO:LB:g=original
=16	=16	=16	=16
8D\L	8.ddL 8.b 8.g 8.d/	mło-	.
8BB\	.	.	.
.	16ddJk 16d/	-dych	.
8G\	4b 4g 4d/	zdro-	.
8D\	.	.	.
8B\	4g 4d/	-wie	.
8G\J	.	.	.
=17	=17	=17	=17
8d\L	8.ddL 8.b 8.g/	pij-	.
8D\	.	.	.
.	16ddJk 16d/	-my	.
8G\	4b 4g 4d/	zdro-	.
8F#\	.	.	.
8E\	4g/	-wie	.
8D#X\J	.	.	.
=18	=18	=18	=18
8E\L	8ccL 8g/	Wi-	.
8G\	8ccJ 8g 8e/	-wat	.
8C\	4ee 4cc 4g 4e/	żo-	.
8Dn\	.	.	.
8E\	4ee 4cc 4e/	-na,	.
8F#\J	.	.	.
=19	=19	=19	=19
8G/L	2dd 2b 2g 2d/	mąż!	.
8D/	.	.	.
8BB/	.	.	.
8D/	.	.	.
8BB/	4r	.	.
8GG/J	.	.	.
!!LO:PB:g=original
=20	=20	=20	=20
4c 4C\	8ccL 8g 8e/	Wi-	ff
.	8eeJ 8cc 8g/	-wat	.
4C 4CC/	4.gg 4.ee 4.cc 4.g\	żo-	.
4c 4C\	.	.	.
.	8ee 8cc 8g 8e/	-na	.
=21	=21	=21	=21
2.G 2.GG;</	2.dd 2.b 2.g 2.d;/	mąż!	.
=22	=22	=22	=22
8C/L	8.ccL 8.a 8.e/	i	p
8BB/	.	.	.
.	16ccJk 16a 16e/	ko-	.
8AA/	4.ee 4.cc 4.a 4.e/	-chaj-	.
8C/	.	.	.
8E/	.	.	.
8A/J	8cc 8a 8e/	-my	.
=23	=23	=23	=23
8D\L	8.bL 8.g/	się	.
8d\	.	.	.
.	16bJk 16g/	pa-	.
8B\	4.dd 4.b 4.g 4.d/	-no-	.
8G\	.	.	.
8D\	.	.	.
8G\J	8b 8g 8d/	-wie!	.
=24	=24	=24	=24
*	*^	*	*
8F#/L	8aL 8d/	2ryy	ko-	.
8E/	8ddJ 8d/	.	-chaj-	.
8D/	4a 4f# 4d/	.	-my	.
8C/	.	.	.	.
8BB/	8g/L	4d\	się	.
8AA/J	8aJ 8f#/	.	.	.
*	*v	*v	*	*
!!LO:LB:g=original
=25	=25	=25	=25
8.GL 8.GG/	2b 2g 2d/	wciąż,	.
16F#Jk 16FF#/	.	.	.
8EL 8EE/	.	.	.
8D 8DD/	.	.	.
8C 8CC/	4r	.	.
8BBJ 8BBB/	.	.	.
=26	=26	=26	=26
8.CL 8.CC/	8.eeL 8.cc 8.g\	i	ff
16CJk 16CC/	16eeJk 16cc 16g\	ko-	.
4.c 4.C^\	4.gg 4.ee 4.cc 4.g^\	-chaj-	.
8C 8CC/	8ee 8cc 8g\	-my	.
=27	=27	=27	=27
8.DL 8.DD\	8.ddL 8.b 8.g\	się	.
16dJk 16D\	16ddJk 16b 16g\	pa-	.
4B 4BB\	4.gg 4.b 4.g^\	-no-	.
4G 4GG/	.	.	.
.	8b 8g 8d/	-wie	.
=28	=28	=28	=28
8.DL 8.DD/	8.ddL 8.a 8.f# 8.d/	ko-	.
16DJk 16DD/	16ddJk 16a 16f# 16d/	-chaj-	.
4C 4CC/	4ee 4cc 4g 4e/	-my	.
4AA 4AAA/	4ff# 4dd 4cc 4f#\	się	.
!!LO:LB:g=original
=29	=29	=29	=29
*tremolo	*	*	*
!!LO:TX:B:a:t=Più mosso.
32GGG/LLL	4.gg 4.dd 4.b 4.g\	wciąż.	.
32GG/	.	.	.
32GGG/	.	.	.
32GG/	.	.	.
32GGG/	.	.	.
32GG/	.	.	.
32GGG/	.	.	.
32GG/	.	.	.
32GGG/	.	.	.
32GG/	.	.	.
32GGG/	.	.	.
32GG/	.	.	.
32GGG/	8ddd\L	.	.
32GG/	.	.	.
32GGG/	.	.	.
32GG/	.	.	.
32GGG/	8bb\	.	.
32GG/	.	.	.
32GGG/	.	.	.
32GG/	.	.	.
32GGG/	8ddd\J	.	.
32GG/	.	.	.
32GGG/	.	.	.
32GG/JJJ	.	.	.
*Xtremolo	*	*	*
=30	=30	=30	=30
4GGG/	8gg\L	.	.
.	8bb\	.	.
4G 4D 4BB 4GG/	8ddd\	.	.
.	8eee\	.	.
4G 4D 4BB 4GG/	8ddd\	.	.
.	8ccc#X\J	.	.
=31	=31	=31	=31
4GG 4GGG/	8dddL 8gg 8dd\	.	.
.	8bb\	.	.
4BB 4BBB/	8gg 8dd\	.	.
.	8aa\	.	.
4D 4DD/	8bb 8dd 8b\	.	.
.	8gg\J	.	.
=32	=32	=32	=32
4G 4GG/	8ddL 8b 8g/	.	.
.	8ee/	.	.
4B 4BB\	8dd 8b 8g/	.	.
.	8cc#X/	.	.
4D\	8dd 8g 8d/	.	.
.	8b/J	.	.
!!LO:LB:g=original
=33	=33	=33	=33
!!LO:TX:B:a:t=Presto.
4G\	4g/	.	.
4d\	8dd\L	.	.
.	8ddd\	.	.
4c\	8cc\	.	.
.	8ccc\J	.	.
=34	=34	=34	=34
4B\	8b\L	.	.
.	8bb\	.	.
4A\	8a\	.	.
.	8aa\	.	.
4G\	8g\	.	.
.	8gg\J	.	.
=35	=35	=35	=35
4F#\	8f#/L	.	.
.	8ff#/	.	.
4E\	8e/	.	.
.	8ee/	.	.
4D\	8d/	.	.
.	8dd/J	.	.
=36	=36	=36	=36
4C/	8c/L	.	.
.	8cc/	.	.
4BB/	8B/	.	.
.	8b/	.	.
4AA/	8A/	.	.
.	8a/J	.	.
=37	=37	=37	=37
8GG/L	4g/	.	.
8G/	.	.	.
8FF#/	4f#/	.	.
8F#/	.	.	.
8EE/	4e/	.	.
8E/J	.	.	.
!!LO:LB:g=original
=38	=38	=38	=38
8DD/L	4d/	.	.
8D/	.	.	.
8CC/	4c/	.	.
8C/	.	.	.
8BBB/	4B/	.	.
8BB/J	.	.	.
=39	=39	=39	=39
4AA 4AAA/	4A/	.	.
4r	4r	.	.
4r	4r	.	.
=40	=40	=40	=40
4D 4DD/	4ff# 4dd 4cc 4a 4f#\	.	.
4r	4r	.	.
4r	4r	.	.
=41||	=41||	=41||	=41||
*M4/4	*M4/4	*	*
*met(c)	*met(c)	*	*
!!LO:TX:B:a:t=Andante.
4G 4GG/	4gg 4dd 4b 4g\	.	.
8.r	8.r	.	.
16G 16D 16BB 16GG/	16gg 16dd 16b 16g\	.	.
4G 4D 4BB 4GG/	4gg 4dd 4b 4g\	.	.
4G 4D 4BB 4GG/	4gg 4dd 4b 4g\	.	.
=42	=42	=42	=42
1G 1GG 1GGG;<	1g;	.	.
==	==	==	==
*-	*-	*-	*-
!!!system-decoration: {(p1)}
!!!RDF**kern: > = above
!!!RDF**kern: < = below
!!!ENC: Andrzej Gręziak
!!!END: 2022-08-23
!!!ENC: Kamil Watkowski
!!!END: 2022-09-29
